assets/awscloudfrontedgelocation/original.svg

<svg height="48" viewBox="0 0 48 48" width="48" xmlns="http://www.w3.org/2000/svg"><path d="m4 43.889v-14.853a42.2 42.2 0 0 1 11.963-4.207v7.097h15.963v-7.097a42.3 42.3 0 0 1 11.963 4.207v14.853zm13.963-13.963h11.963v-11.963h-11.963zm25.926-25.926v22.781a44.2 44.2 0 0 0 -11.963-3.984v-6.834h-15.963v6.834a44.1 44.1 0 0 0 -11.963 3.984v-22.781zm-41.889 41.889h43.889v-43.889h-43.889z" fill="#8c4fff" fill-rule="evenodd"/></svg>

<svg xmlns="http://www.w3.org/2000/svg" width="48" height="48" viewBox="0 0 48 48"><path fill="#8c4fff" fill-rule="evenodd" d="M4 43.889V29.036a42.2 42.2 0 0 1 11.963-4.207v7.097h15.963v-7.097a42.3 42.3 0 0 1 11.963 4.207v14.853zm13.963-13.963h11.963V17.963H17.963zM43.889 4v22.781a44.2 44.2 0 0 0-11.963-3.984v-6.834H15.963v6.834A44.1 44.1 0 0 0 4 26.781V4zM2 45.889h43.889V2H2z"/></svg>
